X: 1
T: Michael Dwyer's Favourite
M: 4/4
L: 1/8
R: reel
K: Gmaj
|:B3G AEGE|DGBG AGED|BABA ~G3B|dBAd BG~G2:|
|:~g3f ~g2dg|egdg egd2|~g3f gedg|1ea~a2 agef:|2e~a2 aged||
